svg/building/maya_pyramids_line.svg

<?xml version="1.0" encoding="UTF-8"?>
<svg width="24px" height="24px" viewBox="0 0 24 24" version="1.1" xmlns="http://www.w3.org/2000/svg" xmlns:xlink="http://www.w3.org/1999/xlink">
    <title>maya_pyramids_line</title>
    <g id="页面-1" stroke="none" stroke-width="1" fill="none" fill-rule="evenodd">
        <g id="Building" transform="translate(-48.000000, -192.000000)">
            <g id="maya_pyramids_line" transform="translate(48.000000, 192.000000)">
                 <path d="M24,0 L24,24 L0,24 L0,0 L24,0 Z M12.5934901,23.257841 L12.5819402,23.2595131 L12.5108777,23.2950439 L12.4918791,23.2987469 L12.4918791,23.2987469 L12.4767152,23.2950439 L12.4056548,23.2595131 C12.3958229,23.2563662 12.3870493,23.2590235 12.3821421,23.2649074 L12.3780323,23.275831 L12.360941,23.7031097 L12.3658947,23.7234994 L12.3769048,23.7357139 L12.4804777,23.8096931 L12.4953491,23.8136134 L12.4953491,23.8136134 L12.5071152,23.8096931 L12.6106902,23.7357139 L12.6232938,23.7196733 L12.6232938,23.7196733 L12.6266527,23.7031097 L12.609561,23.275831 C12.6075724,23.2657013 12.6010112,23.2592993 12.5934901,23.257841 L12.5934901,23.257841 Z M12.8583906,23.1452862 L12.8445485,23.1473072 L12.6598443,23.2396597 L12.6498822,23.2499052 L12.6498822,23.2499052 L12.6471943,23.2611114 L12.6650943,23.6906389 L12.6699349,23.7034178 L12.6699349,23.7034178 L12.678386,23.7104931 L12.8793402,23.8032389 C12.8914285,23.8068999 12.9022333,23.8029875 12.9078286,23.7952264 L12.9118235,23.7811639 L12.8776777,23.1665331 C12.8752882,23.1545897 12.8674102,23.1470016 12.8583906,23.1452862 L12.8583906,23.1452862 Z M12.1430473,23.1473072 C12.1332178,23.1423925 12.1221763,23.1452606 12.1156365,23.1525954 L12.1099173,23.1665331 L12.0757714,23.7811639 C12.0751323,23.7926639 12.0828099,23.8018602 12.0926481,23.8045676 L12.108256,23.8032389 L12.3092106,23.7104931 L12.3186497,23.7024347 L12.3186497,23.7024347 L12.3225043,23.6906389 L12.340401,23.2611114 L12.337245,23.2485176 L12.337245,23.2485176 L12.3277531,23.2396597 L12.1430473,23.1473072 Z" id="MingCute" fill-rule="nonzero"></path>
                <path d="M14,5 C15.0543909,5 15.9181678,5.81587733 15.9945144,6.85073759 L16,7 L16,9.69722 L21.5352,18 L22,18 C22.5523,18 23,18.4477 23,19 C23,19.51285 22.613973,19.9355092 22.1166239,19.9932725 L22,20 L2,20 C1.44772,20 1,19.5523 1,19 C1,18.48715 1.38604429,18.0644908 1.88337975,18.0067275 L2,18 L2.46482,18 L8,9.69722 L8,7 C8,5.94563773 8.81587733,5.08183483 9.85073759,5.00548573 L10,5 L14,5 Z M13.5494,15 L10.4506,15 L10.1173,18 L13.8827,18 L13.5494,15 Z M8.75224,12.1744 L4.86852,18 L8.10496,18 L8.75224,12.1744 Z M15.2478,12.1744 L15.895,18 L19.1315,18 L15.2478,12.1744 Z M13.105,11 L10.895,11 L10.6728,13 L13.3272,13 L13.105,11 Z M14,7 L10,7 L10,9 L14,9 L14,7 Z" id="形状" fill="#09244B"></path>
            </g>
        </g>
    </g>
</svg>

<svg xmlns="http://www.w3.org/2000/svg" width="24" height="24"><g fill="none" fill-rule="evenodd"><path d="M24 0v24H0V0h24ZM12.593 23.258l-.011.002-.071.035-.02.004-.014-.004-.071-.035c-.01-.004-.019-.001-.024.005l-.004.01-.017.428.005.02.01.013.104.074.015.004.012-.004.104-.074.012-.016.004-.017-.017-.427c-.002-.01-.009-.017-.017-.018Zm.265-.113-.013.002-.185.093-.01.01-.003.011.018.43.005.012.008.007.201.093c.012.004.023 0 .029-.008l.004-.014-.034-.614c-.003-.012-.01-.02-.02-.022Zm-.715.002a.023.023 0 0 0-.027.006l-.006.014-.034.614c0 .012.007.02.017.024l.015-.002.201-.093.01-.008.004-.011.017-.43-.003-.012-.01-.01-.184-.092Z"/><path fill="#09244B" d="M14 5a2 2 0 0 1 1.995 1.85L16 7v2.697L21.535 18H22a1 1 0 0 1 .117 1.993L22 20H2a1 1 0 0 1-.117-1.993L2 18h.465L8 9.697V7a2 2 0 0 1 1.85-1.995L10 5h4Zm-.45 10h-3.1l-.333 3h3.766l-.334-3Zm-4.798-2.826L4.87 18h3.236l.647-5.826Zm6.496 0L15.895 18h3.236l-3.883-5.826ZM13.105 11h-2.21l-.222 2h2.654l-.222-2ZM14 7h-4v2h4V7Z"/></g></svg>
